icons/lines/gameboy.svg

<svg xmlns="http://www.w3.org/2000/svg" width="24" height="24" viewBox="0 0 24 24" fill="none" stroke="currentColor" stroke-width="2" stroke-linecap="round" stroke-linejoin="round">
  <path d="M10.3 15.28 8 17.58" />
  <path d="M14.49 17.5h.01" />
  <path d="M16.49 15.33h.01" />
  <path d="M21 17c0 3-1.5 5-5 5H8c-3.5 0-5-2-5-5V7c0-3 1.5-5 5-5h8c3.5 0 5 2 5 5z" />
  <path d="m8.03 15.31 2.3 2.3" />
  <rect x="6" y="5" width="12" height="6" rx="1.758" />
</svg>

<svg xmlns="http://www.w3.org/2000/svg" width="24" height="24" viewBox="0 0 24 24" fill="none" stroke="currentColor" stroke-width="2" stroke-linecap="round" stroke-linejoin="round" >
  <path d="M21 7V17C21 20 19.5 22 16 22H8C4.5 22 3 20 3 17V7C3 4 4.5 2 8 2H16C19.5 2 21 4 21 7Z" stroke-miterlimit="10"/>
  <path d="M16.25 11H7.75C6.79 11 6 10.21 6 9.25V6.75C6 5.79 6.79 5 7.75 5H16.25C17.21 5 18 5.79 18 6.75V9.25C18 10.21 17.21 11 16.25 11Z" stroke-miterlimit="10"/>
  <path d="M10.3 15.28L8 17.58" stroke-miterlimit="10"/>
  <path d="M8.03027 15.3101L10.3303 17.61" stroke-miterlimit="10"/>
  <path d="M16.4902 15.3301H16.5103" stroke-miterlimit="10"/>
  <path d="M14.4902 17.5V17.48" stroke-miterlimit="10"/>
  </svg>
